!!!SOCIAL_FUNCTION:	bird dance songs
!!!PDT:	1956
!!!OTL: No_152_Switchgrass_Dance_Song_(b).krn
!!!LANG: Non-Tone
!!!LING_GROUP: Muskogean
!!!REG: Florida
**kern
*staff1
=1-
*clefF4
*k[b-e-a-]
*M3/4
2r
8.r
16c\
=2!|:
8c\L
8G\J
4G\
8.r
16c\
=3||
*M2/4
8c\L
8G\J
4G\
=4
20G\LL
20F\
20E-\
20C\
20E-\JJ
4C/
=5
8C/
16r
16C/
4C/
=6||
*M3/4
4G\
20G\LL
20F\
20E-\
20C\
20E-\JJ
4C/
=7||
*M2/4
4C/
8.r
16B-\
=8:|!
*M3/4
4C/
2r
==
*-
